2a1
albertroad.htmlalbertroad.htmlalbertroad.htmlalbertroad.htmlalbertroad.htmlalbertroad.htmlalbertroad.htmlalbertroad.htmlalbertroad.htmlFrom <I>Solas: Sunny Spells and Scattered Showers</I>
albertroad.htmlalbertroad.html

T:Primrose Lass, The
M:4/4
L:1/8
R:reel
D:Solas: Solas
Z:Devin McCabe
K:G
ga|:~b3a ~g3e|dB~B2 dega|~b3a ~g3e|1degb a2gb:|2dBGA BA~A2:|
!|:B~d3 edgd|edgd egdc|B~d3 edge|1dBGA BAAc:|2 dBGB A2ga||

%  ABC2Win Version 2.1 8/2/2000



albertroad.htmlalbertroad.htmlalbertroad.htmlalbertroad.htmlalbertroad.htmlalbertroad.html
0

